static/assets/img/icons/theme/devices/headphones.svg

<svg height="24" viewBox="0 0 24 24" width="24" xmlns="http://www.w3.org/2000/svg"><g fill="none" fill-rule="evenodd"><path d="m0 0h24v24h-24z" opacity="0"/><g fill="#000"><path d="m19 16v-4c0-3.86599325-3.1340068-7-7-7-3.86599325 0-7 3.13400675-7 7v4zm2 0h-18v-4c0-4.97056275 4.02943725-9 9-9 4.9705627 0 9 4.02943725 9 9z" fill-rule="nonzero" opacity=".3"/><path d="m5 14h1c1.1045695 0 2 .8954305 2 2v3c0 1.1045695-.8954305 2-2 2h-1c-1.1045695 0-2-.8954305-2-2v-3c0-1.1045695.8954305-2 2-2zm13 0h1c1.1045695 0 2 .8954305 2 2v3c0 1.1045695-.8954305 2-2 2h-1c-1.1045695 0-2-.8954305-2-2v-3c0-1.1045695.8954305-2 2-2z"/></g></g></svg>

<svg width="24px" height="24px" viewBox="0 0 24 24" version="1.1" xmlns="http://www.w3.org/2000/svg" xmlns:xlink="http://www.w3.org/1999/xlink">
    <title>Icon For Headphones</title>
    <g stroke="none" stroke-width="1" fill="none" fill-rule="evenodd">
        <rect opacity="0" x="0" y="0" width="24" height="24"></rect>
        <path d="M19,16 L19,12 C19,8.13400675 15.8659932,5 12,5 C8.13400675,5 5,8.13400675 5,12 L5,16 L19,16 Z M21,16 L3,16 L3,12 C3,7.02943725 7.02943725,3 12,3 C16.9705627,3 21,7.02943725 21,12 L21,16 Z" fill="#000000" fill-rule="nonzero" opacity="0.3"></path>
        <path d="M5,14 L6,14 C7.1045695,14 8,14.8954305 8,16 L8,19 C8,20.1045695 7.1045695,21 6,21 L5,21 C3.8954305,21 3,20.1045695 3,19 L3,16 C3,14.8954305 3.8954305,14 5,14 Z M18,14 L19,14 C20.1045695,14 21,14.8954305 21,16 L21,19 C21,20.1045695 20.1045695,21 19,21 L18,21 C16.8954305,21 16,20.1045695 16,19 L16,16 C16,14.8954305 16.8954305,14 18,14 Z" fill="#000000"></path>
    </g>
</svg>
